X:1
T:Esperant d'avoir
T:Geert van Turnhout
T:Source : La fleur des chansons à 3---Louvain---P.Phalèse---1574. Editor : André Vierendeels (05/09/18) Notes : Original clefs : G2, C2, C3 Original note values have been halved Editorial accidentals above the staff Square brackets indicate ligatures
T:Esperant d'avoir
T:©
T:©
T:©
T:©
T:©
T:©
T:©
C:Geert van Turnhout
Z:©
%%score [ 1 2 3 ]
L:1/8
Q:1/4=96
M:2/2
K:F
V:1 treble nm="Soprano" snm="S"
V:2 treble nm="Alto" snm="A"
V:3 treble-8 nm="Tenor" snm="T"
V:1
 z8 | d2 dd d2 d2 | c2 B2 A2 A2 | A2 f2 e2 d2- | dd c2 B4 | A2 d3 d c2 | B2 AG A4 | B4 d3 d | %8
w: |E- spe- rant d'a- voir|quel- que bien d'a-|mour pour qui tant|_ de mal por-|te, tant de mal|por- * * *|te, e- spe-|
 d2 d2 f2 c2 | d4 A2 A2 | B2 G2 c2 B2- | BB A2 B2 G2 | z2 d3 d g2- | g2 ^f2 g4- | g4 z4 | %15
w: rant d'a- voir quel-|que bien d'a-|mour pour qui tant|_ de mal por- te,|tant de mal|_ por- te,|_|
 d2 dd dcde | f e2 d2 cdd |"^b" fedf ed g2 |"^-natural" f e2 d dc/B/ ^c2 | d8 | z4 d4 | %21
w: co- me'un co- quin suis à sa|por- te, por- * te, co-|me'un co- quin suis à sa por-|te, à sa por- * * *|te,|mais|
 d2 d2 c2 c2 | B6 AG | A2 A2 B3 c | d8 | z2 g2 g2 g2 | f2 f2 f2 ed | e2 e2 d4 | z2 d2 d2 c2 | %29
w: l'aus- mo- nier ne|me _ _|_ dit riens, _|_|mais l'aus- mo-|nier ne me _ _|_ dit riens,|trop bien me|
 d4 z2 G2 | B2 A2 G2 g2 | g2 ^f2 g2 d2 | f2 e2 d2 z2 | z2 g2 f2 c2 | d2 d2 f2 f2 | f2- fe d2 c2 | %36
w: plains, trop|bien me plains, trop|bien me plains et|tends la main,|et tends la|main, mon- strant le|che- * * * re|
 d4- d2 c2 | B4 A2 c2- | c2 B4 A2 | B4 z2 f2 | f2 f2 d4 | z2 B2 B2 B2 | G4 z2 g2 | g2 ^f2 g2 z d | %44
w: fort _ de-|fai- te, de-|* fai- *|te, l'aus-|mo- nier dit,|l'aus- mo- nier|dit: c'est|à de- main, c'est|
 d2 d2 e2 z e | e2 d2 egg^f | g4 z2 d2 | dddf ed c2 | d2 d2 dd d2 | z4 d2 dd | d3 d cB A2 | %51
w: à de- main, c'est|à de- main, c'est à de-|main, ilz|sont cou- chés, l'au- mo- n'est fai-|te, ilz sont cou- chés,|ilz sont cou-|chés, l'aus- mo- n'est fai-|
"^b" =B2 z B cd c2 | =B8 |] %53
w: te, l'aus- mo- n'est fai-|te.|
V:2
 G2 GG G2 B2 | F2 G2 D2 B,2 | F2 G2 G2 FE | F2 A3 A F2 | E4 D2 G2- | G2 F2 B2 A2- | AG G4 F2 | %7
w: E- spe- rant d'a- voir|quel- que bien d'a-|mour pour qui _ _|_ tant de mal|por- te, tant|_ de mal por-||
 G2 G3 G G2 | G2 G2 F2 E2 | D4 z2 D2- | D2 E2 C2 G2 | G2 F2 G2 E2 | D4 B4 | A4 G4 | G2 GG GFGA | %15
w: te, e- spe- rant|d'a- voir quel- que|bien d'a-|* mour pour qui|tant de mal por-|te, por-|* te,|co- me'un co- quin suis à sa|
 B2 AF GA B2 | A2 z D FE D2 | z GBA GBBG | A>GFE/D/ E4 | D4 A4 | A2 A2 G2 G2 | F6 ED | _E2 E2 D4- | %23
w: por- te, suis à sa por-|te, co- me'un co- quin,|co- me'un co- quin suis à sa|por- * * * * *|te, mais|l'aus- mo- nier ne|me _ _|_ dit riens,|
 D4 z2 B2 | B2 B2 A2 D2 | A2 B4 AG | B2 A2 z2 G2 | G2 G2 F2 F2 | F2 ED E2 E2 | D4 z2 G2 | %30
w: _ mais|l'aus- mo- nier ne|me dit _ _|_ riens, trop|bien me plains, trop|bien _ _ _ me|plains, trop|
 G2 F2 G2 G2 | B2 A2 G4 | z2 G2 F2 C2 | D2 B2 B2 A2 | B4 z2 F2 | B2 B2 B2 A2 | G2 FE D2 F2 | %37
w: bien me plains, trop|bien me plains,|et tends la|main, et tends la|main, mon-|strant la che- re|fort, _ _ _ la|
 F2 E2 F3 E |"^b" D2 E2 C4 | B,8 | z2 F2 F2 F2 | D4 z2 B2 | B2 B2 G2 G2 | G2 A2 G2 z G | %44
w: che- re fort _|_ de- fai-|te,|l'aus- mo- nier|dit, l'aus-|mo- nier dit: c'est|à de- main, c'est|
 G2 ^F2 G4 | z2 G2- G B2 A | B4 B2 BB | B3 A GF E2 | D2 A2 AAAB | AG F2 G2 G,2 | G,G,G,B, CG, C2 | %51
w: à de- main,|c'est _ à de-|main, ilz sont cou-|chés, l'au- mo n'est fai-|te, ilz sont cou- chez, l'au-|mo- n'est fai- te, ilz|sont cou- chés, l'au- mo- n'est fai-|
"^b" G,2 D2 ED E2 | D8 |] %53
w: te, l'au- mo- n'est fai-|te.|
V:3
 z8 | z8 | z4 d2 dd | d2 f2 c2 d2 | A2 A2 B2 G2 | d2 d2 B2 c2 |"^b" e4 d4 |"^#" G8 | z4 z2 A2 | %9
w: ||E- spe- rant|d'a- voir quel- que|bien d'a- mour pour|qui tant de mal|por- *|te,|d'a-|
 B2 G2 d4 | B2 c2 A2 G2 | d4 z2 g2- | gg f2 g4 | d4 z2 c2 |"^b" cccB cd _e2 | d4 z4 | A2 cB AABc- | %17
w: mour pour qui|tant de mal por-|te, tant|_ de mal por-|te, co-|me'un co- quin suis à sa por-|te,|co- me'un co- quin suis à sa|
 cB c2 G2 z G | dc d2 A4 | z2 d2 d2 d2 | c2 c2 B4- | B2 AG A2 A2 | G4 z2 g2- | %23
w: _ _ por- te, suis|à sa por- te,|mais l'aus- mo-|nier ne me-|* * * * dit|riens, ne|
"^-natural" gg ^f2 g2 g2 | g2 g2 f2 f2 |"^b""^b""^b" f2 ed e2 e2 |"^-natural" d2 d2 d2 cB | %27
w: _ me dit riens, mais|l'aus- mo- nier ne|me _ _ _ dit|riens, ne me _ _|
 c2 c2 d4- | d4 z2 g2 | g2 f2 g4 | d4 _e2 e2 | d4 z2 g2 | f2 c2 d2 A2 | B2 G/A/B/c/ (3d2 e2 f2 | %34
w: _ dit riens,|_ trop|bien me plains,|trop bien me|plains, et|tends la main, et|tends la _ _ _ _ _ _|
 B8 | z4 F4 | B2 B2 B2 A2 | G4 F4 | G4 F4 | f4 f2 f2 | d4 z2 B2 | B2 B2 G4 | G4 G4- | %43
w: main,|mon-|strant la che- re|fort de-|fai- te,|l'aus- mo- nier|dit, l'aus-|mo- nier dit:|c'est à|
 G2 d2 G2 z G | G2 d2 c2 z c | c2 =B2 cGdd | G4 g2 gg | g2 z2 z4 | d2 dd d3 d | cB A2 G2 g2 | %50
w: _ de- main, c'est|à de- main, c'est|à de- main, c'est à de-|main, ilz sont cou-|chés,|ilz sont cou- chés, l'aus-|mo- n'est fai- te, ilz|
 gggd eg ^f2 | g2 G2 c=B c2 |"^b" G8 |] %53
w: sont cou- chés, l'aus- mo- n'est fai-|te, l'aus- mo- n'est fai-|te.|

